X: 66
T:Pibddawns Harlequin
M:C
L:1/8
Q:180
S:Various Sources
R:Hornpipe
A:Wales
Z:brian_martin12345@yahoo.com
K:G
D2|G2G2GBAc|B2B2Bdce|dgfe dcBA|ceFA GFED|
G2G2GBAc|B2B2Bdce|dgfe dcBA|G2B2G2:||
d2|Bdgd Bdgd|cege cege|dfaf dfaf|dgbgdgbg|
Bdgd Bdgd|cege cege|dfaf dfaf|g2b2g2:||

